build/images/team.svg

<?xml version="1.0" encoding="UTF-8"?>
<svg width="54px" height="54px" viewBox="0 0 54 54" version="1.1" xmlns="http://www.w3.org/2000/svg" xmlns:xlink="http://www.w3.org/1999/xlink">
    <!-- Generator: sketchtool 63.1 (101010) - https://sketch.com -->
    <title>7E38F3A6-2259-4C33-8852-6ACA92FF8CBA</title>
    <desc>Created with sketchtool.</desc>
    <g id="Page-1" stroke="none" stroke-width="1" fill="none" fill-rule="evenodd">
        <g id="Kupa-shop---design" transform="translate(-933.000000, -2686.000000)" fill="#1E7960" fill-rule="nonzero">
            <g id="team" transform="translate(933.000000, 2686.000000)">
                <path d="M48.3399,10.1592 L43.8399,5.6592 C43.538625,5.3575875 43.0671375,5.3087625 42.7104,5.5422 L37.71,8.82 L32.3181,6.57 L31.491,0.7722 C31.4274375,0.32895 31.04775,-2.88373677e-08 30.6,-2.88373677e-08 L23.4,-2.88373677e-08 C22.95225,-2.88373677e-08 22.5725625,0.32895 22.509,0.7722 L21.681,6.57 L16.2945,8.82 L11.2932,5.544 C10.9364625,5.3105625 10.464975,5.3593875 10.1637,5.661 L5.6637,10.161 C5.36175,10.4630625 5.3136,10.935675 5.5485,11.2923 L8.8785,16.3503 L8.3205,17.64 L9.9729,18.3546 L10.7244,16.6194 C10.8451125,16.340625 10.8169875,16.019775 10.6497,15.7662 L7.4529,10.9152 L10.917,7.4511 L15.7068,10.5885 C15.9575625,10.7508375 16.2721125,10.7798625 16.5483,10.6659 L22.8483,8.028 C23.139225,7.9047 23.3442,7.6379625 23.3883,7.3251 L24.1803,1.8 L29.8197,1.8 L30.609,7.3278 C30.6531,7.6406625 30.858075,7.9074 31.149,8.0307 L37.449,10.6668 C37.72485,10.7807625 38.039175,10.7517375 38.2896,10.5894 L43.0812,7.4538 L46.5696,10.9422 L44.2296,14.9022 C44.090325,15.1369875 44.065125,15.4224 44.1612,15.678 L45.1593,18.3141 L46.8432,17.6769 L45.9981,15.4458 L48.4776,11.2536 C48.68685,10.900125 48.63015,10.4497875 48.3399,10.1592 Z" id="Path"></path>
                <path d="M36.6363,34.4637 L33.9363,31.7637 C33.76755,31.59495 33.538725,31.5 33.3,31.5 L20.7,31.5 C20.461275,31.5 20.23245,31.59495 20.0637,31.7637 L17.3637,34.4637 C17.19495,34.63245 17.1,34.861275 17.1,35.1 L17.1,53.1 C17.1,53.597025 17.502975,54 18,54 L36,54 C36.497025,54 36.9,53.597025 36.9,53.1 L36.9,35.1 C36.9,34.861275 36.80505,34.63245 36.6363,34.4637 Z M30.0726,33.3 L32.9274,33.3 L29.7,36.5274 L28.2726,35.1 L30.0726,33.3 Z M28.4274,37.8 L27.2637,38.9637 C27.0943875,39.1321125 26.9994375,39.3611625 27,39.6 C26.9983125,39.363525 26.9035875,39.137175 26.7363,38.97 L25.5726,37.8 L27,36.3726 L28.4274,37.8 Z M27.5274,33.3 L27,33.8274 L26.4726,33.3 L27.5274,33.3 Z M23.9274,33.3 L25.7274,35.1 L24.3,36.5274 L21.0726,33.3 L23.9274,33.3 Z M23.5125,52.2 L18.9,52.2 L18.9,35.4726 L19.8,34.5726 L23.6637,38.4363 L25.1487,39.9213 L23.5125,52.2 Z M25.3287,52.2 L26.9919,39.7188 C26.9973,39.6808875 27,39.64275 27,39.6045 C27.000225,39.6622125 27.0061875,39.7198125 27.018,39.7764 L29.502,52.2 L25.3287,52.2 Z M35.1,52.2 L31.338,52.2 L28.8774,39.8961 L30.3363,38.4363 L34.2,34.5726 L35.1,35.4726 L35.1,52.2 Z" id="Shape"></path>
                <path d="M33.3,11.7 L25.2,11.7 C22.2188625,11.702925 19.802925,14.1188625 19.8,17.1 L19.8,22.5 C19.8045,26.474625 23.025375,29.6955 27,29.7 C30.974625,29.6955 34.1955,26.474625 34.2,22.5 L34.2,12.6 C34.2,12.102975 33.797025,11.7 33.3,11.7 Z M32.4,22.5 C32.4,25.482375 29.982375,27.9 27,27.9 C24.017625,27.9 21.6,25.482375 21.6,22.5 L21.6,18.9 L28.8,18.9 C30.1302,18.8996625 31.4130375,18.4057875 32.4,17.514 L32.4,22.5 Z M28.8,17.1 L21.6,17.1 C21.6,15.1117875 23.2117875,13.5 25.2,13.5 L32.4,13.5 C32.4,15.4882125 30.7882125,17.1 28.8,17.1 Z" id="Shape"></path>
                <path d="M53.7363,38.0637 L51.0363,35.3637 C50.86755,35.19495 50.638725,35.1 50.4,35.1 L43.2,35.1 C42.961275,35.1 42.73245,35.19495 42.5637,35.3637 L39.8637,38.0637 C39.69495,38.23245 39.6,38.461275 39.6,38.7 L39.6,53.1 C39.6,53.597025 40.002975,54 40.5,54 L53.1,54 C53.597025,54 54,53.597025 54,53.1 L54,38.7 C54,38.461275 53.90505,38.23245 53.7363,38.0637 Z M52.2,52.2 L47.7,52.2 L47.7,38.7 L45.9,38.7 L45.9,52.2 L41.4,52.2 L41.4,39.0726 L43.2,37.2726 L45.2637,39.3363 L45.9,38.7 L46.5363,38.0637 L45.3726,36.9 L48.2985,36.9 L47.0826,38.0439 L47.7,38.7 L48.3174,39.3561 L50.463,37.3356 L52.2,39.0726 L52.2,52.2 Z" id="Shape"></path>
                <path d="M47.7,19.8 L45.9297,19.8 C43.45245,19.80495 41.4430875,21.80745 41.4297,24.2847 L41.4152696,28.791 C41.4054,31.7683125 43.810875,34.1899875 46.7883,34.2 C46.7942625,34.2 46.8003375,34.2 46.8063,34.2 C49.7827125,34.1965125 52.19505,31.7854125 52.2,28.809 L52.2,24.3 C52.197075,21.816 50.184,19.802925 47.7,19.8 Z M43.2297,24.291 C43.2345375,22.8148875 44.424,21.6162 45.9,21.6 C45.9001125,23.0796 44.7093,24.2836875 43.2297,24.3 L43.2297,24.291 Z M50.4,28.8063 C50.3965125,30.78855 48.79125,32.39505 46.809,32.4 C44.8257375,32.4 43.218,30.7922625 43.218,28.809 C43.218,28.8059625 43.218,28.8030375 43.218,28.8 L43.227,26.1 C44.633925,26.0915625 45.9559125,25.4255625 46.8,24.3 C47.649825,25.4331 48.983625,26.1 50.4,26.1 L50.4,28.8063 L50.4,28.8063 Z M47.7,21.6 C49.1911875,21.6 50.4,22.8088125 50.4,24.3 C48.9088125,24.3 47.7,23.0911875 47.7,21.6 Z" id="Shape"></path>
                <path d="M14.1363,38.0637 L11.4363,35.3637 C11.26755,35.19495 11.038725,35.1 10.8,35.1 L3.6,35.1 C3.361275,35.1 3.13245,35.19495 2.9637,35.3637 L0.2637,38.0637 C0.09495,38.23245 0,38.461275 0,38.7 L0,53.1 C0,53.597025 0.402975,54 0.9,54 L13.5,54 C13.997025,54 14.4,53.597025 14.4,53.1 L14.4,38.7 C14.4,38.461275 14.30505,38.23245 14.1363,38.0637 Z M12.6,52.2 L8.1,52.2 L8.1,38.7 L6.3,38.7 L6.3,52.2 L1.8,52.2 L1.8,39.0726 L3.6,37.2726 L5.6637,39.3363 L6.3,38.7 L6.9363,38.0637 L5.7726,36.9 L8.6985,36.9 L7.4826,38.0439 L8.1,38.7 L8.7174,39.3561 L10.863,37.3356 L12.6,39.0726 L12.6,52.2 Z" id="Shape"></path>
                <path d="M8.1,19.8 L6.3297,19.8 C3.85245,19.80495 1.8430875,21.80745 1.8297,24.2847 L1.81526955,28.791 C1.8054,31.7683125 4.210875,34.1899875 7.1883,34.2 C7.1942625,34.2 7.2003375,34.2 7.2063,34.2 C10.1827125,34.1965125 12.59505,31.7854125 12.6,28.809 L12.6,24.3 C12.597075,21.816 10.584,19.802925 8.1,19.8 Z M8.1,21.6 C9.240075,21.604725 10.254375,22.3250625 10.6344,23.4 L9,23.4 C7.859925,23.395275 6.845625,22.6749375 6.4656,21.6 L8.1,21.6 Z M4.5,22.3272 L4.5,22.4919 C4.501125,22.7314125 4.4053875,22.96125 4.2345,23.1291 C4.1175,23.24295 3.9704625,23.321025 3.8106,23.3541 C3.9578625,22.96305 4.1938875,22.6116 4.5,22.3272 Z M10.8,28.809 C10.79505,30.7902375 9.1902375,32.39505 7.209,32.4 C5.2257375,32.4 3.618,30.7922625 3.618,28.809 C3.618,28.8059625 3.618,28.8030375 3.618,28.8 L3.6297,25.1928 C4.3342875,25.1888625 5.00895,24.9071625 5.5071,24.4089 C5.6494125,24.2647875 5.7751875,24.1054875 5.8824,23.9337 C6.7174875,24.7449375 7.8357375,25.1991 9,25.2 L10.8,25.2 L10.8,28.809 Z" id="Shape"></path>
            </g>
        </g>
    </g>
</svg>

<svg width="54" height="54" xmlns="http://www.w3.org/2000/svg"><g id="Page-1" stroke="none" stroke-width="1" fill="none" fill-rule="evenodd"><g id="Kupa-shop---design" transform="translate(-933 -2686)" fill="#1E7960" fill-rule="nonzero"><g id="team" transform="translate(933 2686)"><path d="M48.34 10.16l-4.5-4.5a.9.9 0 00-1.13-.118l-5 3.278-5.392-2.25-.827-5.798A.9.9 0 0030.6 0h-7.2a.9.9 0 00-.891.772l-.828 5.798-5.387 2.25-5-3.276a.9.9 0 00-1.13.117l-4.5 4.5a.9.9 0 00-.115 1.131l3.33 5.058-.559 1.29 1.653.715.751-1.736a.9.9 0 00-.074-.853l-3.197-4.85 3.464-3.465 4.79 3.138a.91.91 0 00.841.077l6.3-2.638a.9.9 0 00.54-.703L24.18 1.8h5.64l.789 5.528a.9.9 0 00.54.703l6.3 2.636c.276.114.59.085.84-.078l4.792-3.135 3.489 3.488-2.34 3.96a.9.9 0 00-.069.776l.998 2.636 1.684-.637-.845-2.231 2.48-4.192a.9.9 0 00-.138-1.095z" id="Path"/><path d="M36.636 34.464l-2.7-2.7a.9.9 0 00-.636-.264H20.7a.9.9 0 00-.636.264l-2.7 2.7a.9.9 0 00-.264.636v18a.9.9 0 00.9.9h18a.9.9 0 00.9-.9v-18a.9.9 0 00-.264-.636zM30.073 33.3h2.854L29.7 36.527 28.273 35.1l1.8-1.8zm-1.646 4.5l-1.163 1.164A.894.894 0 0027 39.6a.9.9 0 00-.264-.63l-1.163-1.17L27 36.373l1.427 1.427zm-.9-4.5l-.527.527-.527-.527h1.054zm-3.6 0l1.8 1.8-1.427 1.427-3.227-3.227h2.854zm-.415 18.9H18.9V35.473l.9-.9 3.864 3.863 1.485 1.485L23.512 52.2zm1.817 0l1.663-12.481a.81.81 0 00.008-.114.82.82 0 00.018.171L29.502 52.2h-4.173zm9.771 0h-3.762l-2.46-12.304 1.458-1.46 3.864-3.863.9.9V52.2zm-1.8-40.5h-8.1a5.405 5.405 0 00-5.4 5.4v5.4a7.208 7.208 0 007.2 7.2 7.208 7.208 0 007.2-7.2v-9.9a.9.9 0 00-.9-.9zm-.9 10.8a5.4 5.4 0 11-10.8 0v-3.6h7.2a5.37 5.37 0 003.6-1.386V22.5zm-3.6-5.4h-7.2a3.6 3.6 0 013.6-3.6h7.2a3.6 3.6 0 01-3.6 3.6zm24.936 20.964l-2.7-2.7a.9.9 0 00-.636-.264h-7.2a.9.9 0 00-.636.264l-2.7 2.7a.9.9 0 00-.264.636v14.4a.9.9 0 00.9.9h12.6a.9.9 0 00.9-.9V38.7a.9.9 0 00-.264-.636zM52.2 52.2h-4.5V38.7h-1.8v13.5h-4.5V39.073l1.8-1.8 2.064 2.063.636-.636.636-.636-1.163-1.164h2.925l-1.215 1.144.617.656.617.656 2.146-2.02 1.737 1.737V52.2zm-4.5-32.4h-1.77a4.51 4.51 0 00-4.5 4.485l-.015 4.506a5.391 5.391 0 005.373 5.409h.018a5.4 5.4 0 005.394-5.391V24.3a4.505 4.505 0 00-4.5-4.5zm-4.47 4.491A2.7 2.7 0 0145.9 21.6a2.7 2.7 0 01-2.67 2.7v-.009zm7.17 4.515a3.6 3.6 0 01-3.591 3.594 3.591 3.591 0 01-3.591-3.591V28.8l.009-2.7a4.5 4.5 0 003.573-1.8 4.5 4.5 0 003.6 1.8v2.706zM47.7 21.6a2.7 2.7 0 012.7 2.7 2.7 2.7 0 01-2.7-2.7zM14.136 38.064l-2.7-2.7a.9.9 0 00-.636-.264H3.6a.9.9 0 00-.636.264l-2.7 2.7A.9.9 0 000 38.7v14.4a.9.9 0 00.9.9h12.6a.9.9 0 00.9-.9V38.7a.9.9 0 00-.264-.636zM12.6 52.2H8.1V38.7H6.3v13.5H1.8V39.073l1.8-1.8 2.064 2.063.636-.636.636-.636L5.773 36.9h2.925l-1.215 1.144.617.656.617.656 2.146-2.02 1.737 1.737V52.2zM8.1 19.8H6.33a4.51 4.51 0 00-4.5 4.485l-.015 4.506A5.391 5.391 0 007.188 34.2h.018a5.4 5.4 0 005.394-5.391V24.3a4.505 4.505 0 00-4.5-4.5zm0 1.8a2.7 2.7 0 012.534 1.8H9a2.7 2.7 0 01-2.534-1.8H8.1zm-3.6.727v.165a.887.887 0 01-.266.637.857.857 0 01-.423.225c.147-.391.383-.742.689-1.027zm6.3 6.482A3.6 3.6 0 017.209 32.4a3.591 3.591 0 01-3.591-3.591V28.8l.012-3.607a2.676 2.676 0 002.252-1.26A4.48 4.48 0 009 25.2h1.8v3.609z" id="Shape"/></g></g></g></svg>
